!!!COM: Hugo Wolf
!!!CNT: Deutscher
!!!TXO: Deutsche 
!!!OTL: Die Zigeunerin
!!!ODT: 1887/03/19
!!!ONM: No. 7
!!!LYR: Joseph von Eichendorff
!!!ENC: Brian Bice
!!!YOR: 45 Songs on Poems of Goethe and Eichendorff, Dover Publications, 1995
!!NB: Vocal melody and text only encoded.
**kern	**silbe
*clefG2	*
*k[]	*
*M6/8	*
=2	=2
4.r	.
8r	.
8r	.
{8e	{Am
=3	=3
8cc	Kreuz-
8.cc	-weg
16cc	da
8.g#	lau-
16g#	-sche
8g#	ich,
=4	=4
4a	wenn
8a	die
4b}	Stern'}
{16b	{und
16b	die
=5	=5
8.g	Feu-
16g	-er
8g	im
8.a	Wal-
16a	-de
8a	ver-
=6	=6
4.g	-glom-
4e}	-men,}
{8e	{und
=7	=7
4cc	wo
8cc	der
4g#	er-
8g#	-ste
=8	=8
8a	Hund
8.a	bellt
16a	von
4.b}	fern,}
=9	=9
*k[b-e-a-d-g-]	*
{8b-	{da
16cc	wird
16ddn	|
16ee-	mein
16ff	|
8.gg-	Bra2ut'-
16ff	-gen
8ee-	her-
=10	=10
(4dd-	-kom-
24cc	|
24ee-	|
24dd-	|
4.b-)}	-men.}
=11	=11
{(4dd-	{La
24cc	|
24ee-	|
24dd-	|
4.b-)	|
=12	=12
(4dd-	la
24cc	|
24ee-	|
24dd-	|
4b-)}	|}
{8ee-	{la
=13	=13
4b-	la
8ee-	la
4b-	la
8ee-	la
=14	=14
(8b-	la
[4ff)	|
4.ff_	|
=15	=15
4.ff]}	|}
{4f	{la
[8f	la
=16	=16
4f]	|
[8f	la
4.f_	|
=17	=17
4.f]}	|}
4r	.
8r;	.
=18	=18
4r	.
8r	.
{8b--	{"Und
8b--	als
8b--	der
=19	=19
(b--q	Tag
8ee-)	|
4ee-	graut',
8b--	durch
8.b--	das
16b--	Ge-
=20	=20
8ee-	-ho2lz
16dd-	sah
16cc	ich
16b-	ei-
16an	-ne
[8an	Ka
16an]	|
16b-	|
16cc	-tze
16dd-	sich
=21	=21
4cc	schlin-
16b-	-gen,
16e-}	|}
4.r	.
=22	=22
4.r	.
16r	.
{16c	{ich
16f	schoss
16gn	ihr
16an	auf
16cc	den
=23	=23
8ee-	nuss
([8ee-	brau-
24ee-]	|
24ff)	|
24gg-	-nen
(gg-q	Pelz,
4.cc)	|
=24	=24
16ee-	wie
16dd-	tat
16cc	die
16b-	weit
16a-	u2-
16g-	-ber-
(16f	-sprin-
32a-	|
32g-)	|
8.f}	-gen!}
16r	.
=25	=25
{16ff	{wie
16ee-	tat
16dd-	die
16cc	weit
16b-	u2-
16a-	-ber-
(16gn	-sprin-
32b-	|
32a-)	|
8.gn}	-gen!}
16r	.
=26	=26
{16gg-	{Ha
16ff	ha
16ee-	ha
16dd-	ha
16cc	ha
16gg-	ha
[4ff	ha
(16ff]	|
16f	|
=27	=27
16gg-)	|
16ff	ha
16ee-	ha
16dd-	ha
16cc	ha
16gg-	ha
[4.ff	ha
=28	=28
*k[]	*
16ff]	|
16ee	ha
16dd	ha
16cc	ha
16b}	ha"}
16r	.
4.r	.
=30	=30
{8cc	{Schad'
8.c	nur
16c	ums
(cq	Pelz-
8g#)	|
8g#	-lein,
8r	.
=31	=31
8cc	du
8.cc	kriegst
16cc	mich
(ccq	nit!
[4g#)	|
16g#]}	|}
16r	.
=32	=32
{8a	{mein
8.b	Shatz
16b	muss
4cc	sein
16r	.
32dd	wie
32ee	die
=33	=33
(4f#	an-
8g)	|
4g}	-dern:}
8r;	.
=34	=34
{4ffn	{braun
16ffn	und
16ffn	ein
8a	Stutz-
8..a	-bart
32a	auf
=35	=35
8.ff	ung'-
16ff	-ri-
8ff	-schen
8a}	Schnitt}
8r	.
{16a	{und
16a	ein
=36	=36
8.aa	fro2h-
16ff	-li-
8ee	-ches
(ddq	Her-
eeq	|
8.ff)	|
16dd	-ze
8cc	zum
=37	=37
(4bn	Wan-
24a#	|
24cc	|
24b)	|
4an}	-dern.}
8r	.
=38	=38
{(4b	{La
24a#	|
24cc	|
24b	|
4an	|
8ee)	|
=39	=39
(4b	la
24a#	|
24cc	|
24b	|
16an	|
[16f	|
4f])}	|}
=40	=40
{(4b	{la
24a#	|
24cc	|
24b	|
4an	|
8f)	|
=41	=41
(4b	la
24a#	|
24cc	|
24b	|
4an)}	|}
{8b	{la
=42	=42
4a	la
8cc	la
4a	la
8ee-	la
=43	=43
4a	la
8een	la
4a	la
8ff	la
=44	=44
(8a	la
[4aa	|
32aa]	|
32gg#	|
32ggn	|
32ff#	|
32ffn	|
32ee	|
32ee-	|
32dd	|
32cc#	|
32ccn	|
32b	|
32b-)	|
=45	=45
[4.a	|
4a]}	|}
8r	.
*-	*-
